static/assets/img/icons/theme/general/hidden.svg

<svg height="24" viewBox="0 0 24 24" width="24" xmlns="http://www.w3.org/2000/svg"><g fill="none" fill-rule="evenodd"><path d="m0 0h24v24h-24z" opacity="0"/><g fill="#000"><path d="m19.2078777 9.84836149c1.1225046 1.16953261 1.7921223 2.15163851 1.7921223 2.15163851s-4.0909091 6-9 6c-.3106559 0-.6120967-.0135155-.9044974-.0392635z" fill-rule="nonzero"/><path d="m14.5051465 6.49485351-2.5051465 2.50514649c-1.6568542 0-3 1.3431458-3 3l-3.47338536 3.4733854c-1.77655011-1.6398943-2.52661464-3.4733854-2.52661464-3.4733854s2.45454545-6 9-6c.8665422 0 1.7075911.18695134 2.5051465.49485351z" fill-rule="nonzero"/><path d="m3.024621 11.424621h19v2h-19z" opacity=".3" transform="matrix(.70710678 -.70710678 .70710678 .70710678 -5.117157 12.495332)"/></g></g></svg>

<svg width="24px" height="24px" viewBox="0 0 24 24" version="1.1" xmlns="http://www.w3.org/2000/svg" xmlns:xlink="http://www.w3.org/1999/xlink">
    <title>Icon For Hidden</title>
    <g stroke="none" stroke-width="1" fill="none" fill-rule="evenodd">
        <rect opacity="0" x="0" y="0" width="24" height="24"></rect>
        <path d="M19.2078777,9.84836149 C20.3303823,11.0178941 21,12 21,12 C21,12 16.9090909,18 12,18 C11.6893441,18 11.3879033,17.9864845 11.0955026,17.9607365 L19.2078777,9.84836149 Z" fill="#000000" fill-rule="nonzero"></path>
        <path d="M14.5051465,6.49485351 L12,9 C10.3431458,9 9,10.3431458 9,12 L5.52661464,15.4733854 C3.75006453,13.8334911 3,12 3,12 C3,12 5.45454545,6 12,6 C12.8665422,6 13.7075911,6.18695134 14.5051465,6.49485351 Z" fill="#000000" fill-rule="nonzero"></path>
        <rect fill="#000000" opacity="0.3" transform="translate(12.524621, 12.424621) rotate(-45.000000) translate(-12.524621, -12.424621) " x="3.02462111" y="11.4246212" width="19" height="2"></rect>
    </g>
</svg>
